public/images/react-native.svg

<svg xmlns="http://www.w3.org/2000/svg"  viewBox="0 0 50 50" width="50px" height="50px"><path d="M 34.554688 3.984375 C 33.775003 3.9581582 32.958884 4.0940926 32.140625 4.359375 C 30.504109 4.889941 28.789203 5.9238848 27.029297 7.3554688 C 26.339589 7.9165071 25.643623 8.5578288 24.945312 9.2382812 C 24.262398 8.5751039 23.580733 7.9490442 22.90625 7.4003906 C 21.147758 5.9699557 19.4375 4.9375672 17.804688 4.4082031 C 16.171878 3.8788386 14.547223 3.8624356 13.212891 4.6328125 C 11.878558 5.4031893 11.080619 6.8173558 10.722656 8.4960938 C 10.364693 10.174832 10.402173 12.173992 10.761719 14.412109 C 10.886606 15.189511 11.066671 16.005078 11.269531 16.835938 C 10.507095 17.067004 9.7666767 17.309955 9.0800781 17.578125 C 7.0079817 18.387438 5.2934468 19.355663 4.0449219 20.507812 C 2.7963969 21.659962 1.9902344 23.058304 1.9902344 24.59375 C 1.9902344 26.129196 2.7963969 27.525585 4.0449219 28.677734 C 5.2934468 29.829884 7.0079817 30.800062 9.0800781 31.609375 C 9.8142516 31.896126 10.609118 32.154326 11.429688 32.398438 C 11.134531 33.501278 10.895394 34.571467 10.732422 35.585938 C 10.372587 37.825853 10.334588 39.825265 10.693359 41.507812 C 11.052134 43.19036 11.850478 44.612534 13.191406 45.386719 C 14.532336 46.160905 16.164264 46.141894 17.800781 45.611328 C 19.437297 45.080762 21.15025 44.048772 22.910156 42.617188 C 23.593512 42.061316 24.284757 41.427206 24.976562 40.753906 C 25.671663 41.430886 26.366333 42.068604 27.052734 42.626953 C 28.811227 44.057387 30.523438 45.089776 32.15625 45.619141 C 33.789061 46.148505 35.411762 46.164908 36.746094 45.394531 C 38.080426 44.624154 38.878366 43.209988 39.236328 41.53125 C 39.59429 39.852512 39.554857 37.85335 39.195312 35.615234 C 39.031899 34.598012 38.792614 33.526227 38.496094 32.419922 C 39.343769 32.169866 40.163744 31.904721 40.919922 31.609375 C 42.992018 30.800062 44.706553 29.829884 45.955078 28.677734 C 47.203603 27.525585 48.009766 26.129196 48.009766 24.59375 C 48.009766 23.058304 47.203603 21.659963 45.955078 20.507812 C 44.706553 19.355663 42.992018 18.387438 40.919922 17.578125 C 40.22347 17.306107 39.471688 17.059992 38.697266 16.826172 C 38.901775 15.990221 39.083345 15.168805 39.208984 14.386719 C 39.568819 12.146804 39.606825 10.145439 39.248047 8.4628906 C 38.889279 6.7803434 38.088976 5.3601244 36.748047 4.5859375 C 36.077582 4.1988452 35.334372 4.0105918 34.554688 3.984375 z M 34.462891 6.0195312 C 34.952154 6.03291 35.369535 6.1493386 35.726562 6.3554688 C 36.440618 6.7677287 36.968419 7.5700924 37.25 8.890625 C 37.531581 10.211156 37.521848 11.99533 37.189453 14.064453 C 37.075647 14.772878 36.910402 15.52369 36.722656 16.292969 C 34.677708 15.800829 32.436969 15.435424 30.048828 15.220703 C 28.849094 13.558465 27.615953 12.046374 26.373047 10.703125 C 27.030182 10.061662 27.683063 9.4617259 28.320312 8.9433594 C 29.946026 7.6209332 31.485126 6.7210962 32.769531 6.3046875 C 33.411734 6.0964824 33.973627 6.0061525 34.462891 6.0195312 z M 15.486328 6.0253906 C 15.978419 6.0116533 16.541491 6.1017415 17.185547 6.3105469 C 18.473657 6.7281576 20.015451 7.6275969 21.642578 8.9511719 C 22.266889 9.4590141 22.905452 10.045872 23.548828 10.671875 C 22.296955 12.025781 21.055175 13.553705 19.847656 15.230469 C 17.468002 15.449155 15.235261 15.818024 13.199219 16.3125 C 13.012686 15.546898 12.84964 14.799095 12.736328 14.09375 C 12.403642 12.02283 12.39534 10.236451 12.677734 8.9121094 C 12.960128 7.5877677 13.492238 6.7813032 14.212891 6.3652344 C 14.573216 6.1572002 14.994237 6.0391279 15.486328 6.0253906 z M 24.976562 12.142578 C 25.791064 13.028975 26.606064 13.9993 27.414062 15.042969 C 26.620033 15.009861 25.816288 14.990234 25 14.990234 C 24.167457 14.990234 23.34841 15.010498 22.539062 15.044922 C 23.347352 14.000306 24.16175 13.029737 24.976562 12.142578 z M 25 17.009766 C 26.359894 17.009766 27.685348 17.065647 28.974609 17.160156 C 29.86173 18.434311 30.728648 19.786055 31.554688 21.216797 C 32.280504 22.473948 32.937328 23.729163 33.535156 24.96875 C 32.931017 26.224782 32.263184 27.496972 31.527344 28.771484 C 30.879609 29.893393 30.20319 30.958949 29.515625 31.986328 C 28.059313 32.10805 26.550303 32.175781 25 32.175781 C 23.412375 32.175781 21.869462 32.104031 20.380859 31.976562 C 19.704742 30.963955 19.039735 29.912587 18.402344 28.808594 C 17.668186 27.536996 17.003577 26.269079 16.400391 25.015625 C 17.006106 23.755092 17.673701 22.47818 18.412109 21.199219 C 19.233818 19.775977 20.098207 18.432055 20.980469 17.164062 C 22.283609 17.067424 23.62445 17.009766 25 17.009766 z M 31.550781 17.410156 C 33.198531 17.615819 34.745652 17.90154 36.185547 18.244141 C 35.758129 19.645287 35.231654 21.108808 34.59375 22.619141 C 34.179567 21.820719 33.750599 21.019585 33.287109 20.216797 C 32.725727 19.244455 32.142026 18.315962 31.550781 17.410156 z M 18.34375 17.425781 C 17.764654 18.315097 17.194836 19.224578 16.644531 20.177734 C 16.175094 20.990823 15.737221 21.802736 15.318359 22.611328 C 14.68596 21.110075 14.162654 19.654877 13.738281 18.261719 C 15.168002 17.918363 16.706766 17.633813 18.34375 17.425781 z M 38.164062 18.775391 C 38.872944 18.989877 39.557566 19.21371 40.185547 19.458984 C 42.0957 20.205046 43.60665 21.088493 44.585938 21.992188 C 45.565224 22.895882 45.990234 23.757696 45.990234 24.59375 C 45.990234 25.429804 45.565225 26.291619 44.585938 27.195312 C 43.60665 28.099007 42.0957 28.982454 40.185547 29.728516 C 39.487698 30.001079 38.72096 30.248243 37.923828 30.482422 C 37.355199 28.723643 36.629408 26.888772 35.765625 25.015625 C 36.758785 22.865083 37.561088 20.768289 38.164062 18.775391 z M 11.802734 18.785156 C 12.398795 20.758095 13.190852 22.834207 14.169922 24.962891 C 13.30047 26.846955 12.571087 28.692254 12 30.460938 C 11.23096 30.232919 10.490212 29.992451 9.8144531 29.728516 C 7.9042995 28.982454 6.39335 28.099007 5.4140625 27.195312 C 4.434775 26.291618 4.0097656 25.429804 4.0097656 24.59375 C 4.0097656 23.757696 4.434775 22.895882 5.4140625 21.992188 C 6.39335 21.088493 7.9042995 20.205046 9.8144531 19.458984 C 10.432774 19.217483 11.105915 18.996837 11.802734 18.785156 z M 25 20 C 22.250421 20 20 22.250421 20 25 C 20 27.749579 22.250421 30 25 30 C 27.749579 30 30 27.749579 30 25 C 30 22.250421 27.749579 20 25 20 z M 25 22 C 26.668699 22 28 23.331301 28 25 C 28 26.668699 26.668699 28 25 28 C 23.331301 28 22 26.668699 22 25 C 22 23.331301 23.331301 22 25 22 z M 34.619141 27.363281 C 35.143596 28.604493 35.599462 29.819048 35.982422 30.990234 C 34.779808 31.269089 33.499292 31.504052 32.152344 31.689453 C 32.540071 31.070779 32.922982 30.44057 33.296875 29.792969 C 33.765554 28.981192 34.200846 28.17048 34.619141 27.363281 z M 15.341797 27.365234 C 15.762305 28.177437 16.200272 28.991753 16.671875 29.808594 C 17.041066 30.448052 17.418053 31.072363 17.800781 31.683594 C 16.457817 31.497372 15.181231 31.261605 13.982422 30.982422 C 14.363652 29.81481 14.819744 28.602796 15.341797 27.365234 z M 13.40625 32.923828 C 15.216074 33.352568 17.177716 33.681912 19.257812 33.896484 C 20.646655 35.905245 22.092677 37.70929 23.548828 39.287109 C 22.897813 39.921859 22.252566 40.517583 21.621094 41.03125 C 19.99538 42.353677 18.454326 43.251559 17.169922 43.667969 C 15.885516 44.084378 14.926946 44.029446 14.212891 43.617188 C 13.498835 43.204927 12.972987 42.402563 12.691406 41.082031 C 12.409825 39.761499 12.417606 37.979279 12.75 35.910156 C 12.900793 34.971492 13.12615 33.966374 13.40625 32.923828 z M 36.560547 32.931641 C 36.842786 33.979991 37.069087 34.989811 37.220703 35.933594 C 37.553389 38.004513 37.56169 39.788939 37.279297 41.113281 C 36.996903 42.437623 36.466746 43.24604 35.746094 43.662109 C 35.025442 44.078178 34.059594 44.13441 32.771484 43.716797 C 31.483374 43.299186 29.941578 42.397794 28.314453 41.074219 C 27.678439 40.556858 27.028726 39.958258 26.373047 39.318359 C 27.838664 37.73459 29.295467 35.920758 30.693359 33.900391 C 32.778701 33.687251 34.745791 33.359875 36.560547 32.931641 z M 21.867188 34.101562 C 22.893951 34.157518 23.934244 34.195312 25 34.195312 C 26.030504 34.195312 27.037063 34.159787 28.03125 34.107422 C 27.014961 35.478593 25.979034 36.725149 24.947266 37.847656 C 23.916125 36.722751 22.882145 35.473968 21.867188 34.101562 z"/></svg>

<svg xmlns="http://www.w3.org/2000/svg" xmlns:xlink="http://www.w3.org/1999/xlink" viewBox="0,0,256,256" width="100px" height="100px" fill-rule="nonzero"><g fill="#3c5bbd" fill-rule="nonzero" stroke="none" stroke-width="1" stroke-linecap="butt" stroke-linejoin="miter" stroke-miterlimit="10" stroke-dasharray="" stroke-dashoffset="0" font-family="none" font-weight="none" font-size="none" text-anchor="none" style="mix-blend-mode: normal"><g transform="scale(5.12,5.12)"><path d="M34.55469,3.98438c-0.77969,-0.02622 -1.5958,0.10972 -2.41406,0.375c-1.63652,0.53057 -3.35142,1.56451 -5.11133,2.99609c-0.68971,0.56104 -1.38567,1.20236 -2.08398,1.88281c-0.68291,-0.66318 -1.36458,-1.28924 -2.03906,-1.83789c-1.75849,-1.43043 -3.46875,-2.46282 -5.10156,-2.99219c-1.63281,-0.52936 -3.25746,-0.54577 -4.5918,0.22461c-1.33433,0.77038 -2.13227,2.18454 -2.49024,3.86328c-0.35796,1.67874 -0.32048,3.6779 0.03906,5.91602c0.12489,0.7774 0.30495,1.59297 0.50781,2.42383c-0.76244,0.23107 -1.50285,0.47402 -2.18945,0.74219c-2.0721,0.80931 -3.78663,1.77754 -5.03516,2.92969c-1.24853,1.15215 -2.05469,2.55049 -2.05469,4.08594c0,1.53545 0.80616,2.93183 2.05469,4.08398c1.24852,1.15215 2.96306,2.12233 5.03516,2.93164c0.73417,0.28675 1.52904,0.54495 2.34961,0.78906c-0.29516,1.10284 -0.53429,2.17303 -0.69727,3.1875c-0.35984,2.23992 -0.39783,4.23933 -0.03906,5.92187c0.35878,1.68255 1.15712,3.10472 2.49805,3.87891c1.34093,0.77419 2.97286,0.75518 4.60938,0.22461c1.63652,-0.53057 3.34947,-1.56256 5.10938,-2.99414c0.68336,-0.55587 1.3746,-1.18998 2.06641,-1.86328c0.6951,0.67698 1.38977,1.3147 2.07617,1.87305c1.75849,1.43043 3.4707,2.46282 5.10352,2.99219c1.63281,0.52936 3.25551,0.54577 4.58984,-0.22461c1.33433,-0.77038 2.13227,-2.18454 2.49023,-3.86328c0.35796,-1.67874 0.31853,-3.6779 -0.04102,-5.91602c-0.16341,-1.01722 -0.4027,-2.08901 -0.69922,-3.19531c0.84768,-0.25006 1.66765,-0.5152 2.42383,-0.81055c2.0721,-0.80931 3.78663,-1.77949 5.03516,-2.93164c1.24853,-1.15215 2.05469,-2.54854 2.05469,-4.08398c0,-1.53545 -0.80616,-2.93379 -2.05469,-4.08594c-1.24853,-1.15215 -2.96306,-2.12037 -5.03516,-2.92969c-0.69645,-0.27202 -1.44823,-0.51813 -2.22266,-0.75195c0.20451,-0.83595 0.38608,-1.65737 0.51172,-2.43945c0.35983,-2.23991 0.39784,-4.24128 0.03906,-5.92383c-0.35877,-1.68255 -1.15907,-3.10277 -2.5,-3.87695c-0.67047,-0.38709 -1.41367,-0.57535 -2.19336,-0.60156zM34.46289,6.01953c0.48926,0.01338 0.90664,0.12981 1.26367,0.33594c0.71406,0.41226 1.24186,1.21462 1.52344,2.53516c0.28158,1.32053 0.27185,3.1047 -0.06055,5.17383c-0.11381,0.70843 -0.27905,1.45924 -0.4668,2.22852c-2.04495,-0.49214 -4.28569,-0.85754 -6.67383,-1.07227c-1.19973,-1.66224 -2.43287,-3.17433 -3.67578,-4.51758c0.65714,-0.64146 1.31002,-1.2414 1.94727,-1.75977c1.62571,-1.32243 3.16481,-2.22226 4.44922,-2.63867c0.6422,-0.20821 1.2041,-0.29854 1.69336,-0.28516zM15.48633,6.02539c0.49209,-0.01374 1.05516,0.07635 1.69922,0.28516c1.28811,0.41761 2.8299,1.31705 4.45703,2.64063c0.62431,0.50784 1.26287,1.0947 1.90625,1.7207c-1.25187,1.35391 -2.49365,2.88183 -3.70117,4.55859c-2.37965,0.21869 -4.6124,0.58756 -6.64844,1.08203c-0.18653,-0.7656 -0.34958,-1.51341 -0.46289,-2.21875c-0.33269,-2.07092 -0.34099,-3.8573 -0.05859,-5.18164c0.28239,-1.32434 0.8145,-2.13081 1.53516,-2.54687c0.36032,-0.20803 0.78135,-0.32611 1.27344,-0.33984zM24.97656,12.14258c0.8145,0.8864 1.6295,1.85672 2.4375,2.90039c-0.79403,-0.03311 -1.59777,-0.05274 -2.41406,-0.05274c-0.83254,0 -1.65159,0.02026 -2.46094,0.05469c0.80829,-1.04462 1.62269,-2.01518 2.4375,-2.90234zM25,17.00977c1.35989,0 2.68535,0.05588 3.97461,0.15039c0.88712,1.27416 1.75404,2.6259 2.58008,4.05664c0.72582,1.25715 1.38264,2.51237 1.98047,3.75195c-0.60414,1.25603 -1.27197,2.52822 -2.00781,3.80273c-0.64774,1.12191 -1.32415,2.18746 -2.01172,3.21484c-1.45631,0.12172 -2.96532,0.18945 -4.51562,0.18945c-1.58762,0 -3.13054,-0.07175 -4.61914,-0.19922c-0.67612,-1.01261 -1.34112,-2.06398 -1.97852,-3.16797c-0.73416,-1.2716 -1.39877,-2.53951 -2.00195,-3.79297c0.60572,-1.26053 1.27331,-2.53745 2.01172,-3.81641c0.82171,-1.42324 1.6861,-2.76716 2.56836,-4.03516c1.30314,-0.09664 2.64398,-0.1543 4.01953,-0.1543zM31.55078,17.41016c1.64775,0.20566 3.19487,0.49138 4.63477,0.83398c-0.42742,1.40115 -0.95389,2.86467 -1.5918,4.375c-0.41418,-0.79842 -0.84315,-1.59956 -1.30664,-2.40234c-0.56138,-0.97234 -1.14508,-1.90084 -1.73633,-2.80664zM18.34375,17.42578c-0.5791,0.88932 -1.14891,1.7988 -1.69922,2.75195c-0.46944,0.81309 -0.90731,1.625 -1.32617,2.43359c-0.6324,-1.50125 -1.1557,-2.95645 -1.58008,-4.34961c1.42972,-0.34336 2.96848,-0.62791 4.60547,-0.83594zM38.16406,18.77539c0.70888,0.21449 1.3935,0.43832 2.02148,0.68359c1.91015,0.74606 3.4211,1.62951 4.40039,2.5332c0.97929,0.90369 1.4043,1.76551 1.4043,2.60156c0,0.83605 -0.42501,1.69787 -1.4043,2.60156c-0.97929,0.90369 -2.49024,1.78714 -4.40039,2.5332c-0.69785,0.27256 -1.46459,0.51973 -2.26172,0.75391c-0.56863,-1.75878 -1.29442,-3.59365 -2.1582,-5.4668c0.99316,-2.15054 1.79546,-4.24734 2.39844,-6.24023zM11.80273,18.78516c0.59606,1.97294 1.38812,4.04905 2.36719,6.17773c-0.86945,1.88406 -1.59883,3.72936 -2.16992,5.49805c-0.76904,-0.22802 -1.50979,-0.46849 -2.18555,-0.73242c-1.91015,-0.74606 -3.4211,-1.62951 -4.40039,-2.5332c-0.97929,-0.90369 -1.4043,-1.76551 -1.4043,-2.60156c0,-0.83605 0.42501,-1.69787 1.4043,-2.60156c0.97929,-0.90369 2.49024,-1.78714 4.40039,-2.5332c0.61832,-0.2415 1.29146,-0.46215 1.98828,-0.67383zM25,20c-2.74958,0 -5,2.25042 -5,5c0,2.74958 2.25042,5 5,5c2.74958,0 5,-2.25042 5,-5c0,-2.74958 -2.25042,-5 -5,-5zM25,22c1.6687,0 3,1.3313 3,3c0,1.6687 -1.3313,3 -3,3c-1.6687,0 -3,-1.3313 -3,-3c0,-1.6687 1.3313,-3 3,-3zM34.61914,27.36328c0.52446,1.24121 0.98032,2.45577 1.36328,3.62695c-1.20261,0.27886 -2.48313,0.51382 -3.83008,0.69922c0.38773,-0.61867 0.77064,-1.24888 1.14453,-1.89648c0.46868,-0.81178 0.90397,-1.62249 1.32227,-2.42969zM15.3418,27.36523c0.42051,0.8122 0.85847,1.62652 1.33008,2.44336c0.36919,0.63946 0.74618,1.26377 1.12891,1.875c-1.34296,-0.18622 -2.61955,-0.42199 -3.81836,-0.70117c0.38123,-1.16761 0.83732,-2.37963 1.35938,-3.61719zM13.40625,32.92383c1.80982,0.42874 3.77147,0.75808 5.85156,0.97266c1.38884,2.00876 2.83486,3.81281 4.29102,5.39063c-0.65102,0.63475 -1.29626,1.23047 -1.92773,1.74414c-1.62571,1.32243 -3.16677,2.22031 -4.45117,2.63672c-1.28441,0.41641 -2.24298,0.36148 -2.95703,-0.05078c-0.71406,-0.41226 -1.2399,-1.21462 -1.52149,-2.53516c-0.28158,-1.32053 -0.2738,-3.10275 0.05859,-5.17187c0.15079,-0.93866 0.37615,-1.94378 0.65625,-2.98633zM36.56055,32.93164c0.28224,1.04835 0.50854,2.05817 0.66016,3.00195c0.33269,2.07092 0.34099,3.85535 0.05859,5.17969c-0.28239,1.32434 -0.81255,2.13276 -1.5332,2.54883c-0.72065,0.41607 -1.6865,0.4723 -2.97461,0.05469c-1.28811,-0.41761 -2.82991,-1.319 -4.45703,-2.64258c-0.63601,-0.51736 -1.28573,-1.11596 -1.94141,-1.75586c1.46562,-1.58377 2.92242,-3.3976 4.32031,-5.41797c2.08534,-0.21314 4.05243,-0.54052 5.86719,-0.96875zM21.86719,34.10156c1.02676,0.05596 2.06706,0.09375 3.13281,0.09375c1.0305,0 2.03706,-0.03552 3.03125,-0.08789c-1.01629,1.37117 -2.05222,2.61773 -3.08398,3.74023c-1.03114,-1.1249 -2.06512,-2.37369 -3.08008,-3.74609z"></path></g></g></svg>
